X: 38
T: Women's War Song
N: Derived from pawnee38.krn
O: Oklahoma, U.S.A.
N: from Pawnee Music by Frances Densmore, 1926
Z: transcribed to **kern format by David Huron, August 2000
C: Skidi and Chaui Bands, 1919
L: 1/8
M: 3/4
Q: 1/4=88
K: Eb clef=treble
%%linebreak <none>
(3G F E(G3F) [I:setbarnb 2]| 
F C-C2C2 | 
(3G F EG3F | 
F C-C2C2 | 
(3C C =B,C4 | 
E CC4 | 
F C G F C C[M:7/8] | 
FC GF EC C[M:3/4] | 
C2C C F[M:2/4] | 
C2C z[M:7/8] | 
EC CC CC =B,[M:2/4] | 
C4 | 
E CC2 :|]  



